src/scalable/apps/via.svg

<svg width="64" height="64" version="1.1" viewBox="0 0 64 64" xmlns="http://www.w3.org/2000/svg">
 <circle cx="32" cy="32" r="27" fill="#4d4d4d"/>
 <rect transform="rotate(-20.21 13.427 35.141)" x="13.427" y="35.141" width="1.526" height="8.393" rx=".763" fill="#D9D9D9"/>
 <path d="m9.0762 26.917 2.0296 6.8644c0.0134 0.0455 0.0571 0.0753 0.1044 0.0712l40.204-3.4321c0.0891-0.0076 0.1768-0.0272 0.2608-0.0581l2.2876-0.8433c0.1289-0.0475 0.1954-0.1902 0.1487-0.3194l-2.3163-6.4151c-0.0411-0.1136-0.1319-0.2022-0.2465-0.2403l-12.898-6.2101c-0.2393-0.1153-0.5147-0.1305-0.7653-0.0425l-28.495 10.012c-0.25129 0.0883-0.38926 0.3581-0.31374 0.6135z" color="#000000" fill="#6b6767" style="-inkscape-stroke:none"/>
 <path d="m37.719 15.82-28.494 10.012c-0.49782 0.17493-0.77658 0.72055-0.62695 1.2266l2.0293 6.8633c0.07991 0.27134 0.3456 0.45212 0.62695 0.42773l-2e-3 2e-3 40.205-3.4336c0.13395-0.01143 0.26509-0.03976 0.39062-0.08594l2.2871-0.84375c0.38141-0.14055 0.58556-0.57639 0.44726-0.95898l-2.3164-6.4141c-0.09296-0.25693-0.30077-0.45856-0.56055-0.54492l0.06055 0.02344-12.898-6.2109c-0.35896-0.17296-0.77281-0.1944-1.1484-0.0625zm0.33203 0.94336c0.12557-0.04409 0.26317-0.03616 0.38281 0.02148l12.906 6.2129 2.2168 6.1367-2.0547 0.75781c-0.04247 0.01562-0.08661 0.02552-0.13086 0.0293l-39.879 3.4043-1.9355-6.5508z" color="#000000" fill="#6b6767" style="-inkscape-stroke:none"/>
 <path d="m11.052 34.424c-0.7177-0.4307-0.6245-1.4992 0.1583-1.7957 9.8854-3.7435 23.022-8.9645 27.742-10.847 1.1293-0.4506 2.398-0.363 3.4559 0.2364l11.275 6.3891c0.7274 0.4121 0.6579 1.4818-0.1166 1.7964l-27.694 11.251c-1.1652 0.4733-2.4851 0.3711-3.5635-0.2759l-11.257-6.7539z" fill="#6b6767"/>
 <path d="m9.0072 27.552c-0.69771-0.4419-0.5937-1.4903 0.17867-1.7827 9.8497-3.7291 22.959-8.9383 27.739-10.845 1.1619-0.4634 2.4732-0.3584 3.5458 0.2851l11.327 6.796c0.707 0.4243 0.6257 1.4737-0.1382 1.784l-27.697 11.252c-1.1967 0.4862-2.5545 0.3645-3.6457-0.3266l-11.309-7.1626z" fill="#928E8E"/>
 <path d="m17.67 35.971c0.9146-0.8635 1.4209-1.9404 1.4358-3.0541 0.015-1.1138-0.4623-2.1984-1.3535-3.0763-0.8913-0.8778-2.1437-1.4968-3.552-1.7555-1.4084-0.2587-2.8893-0.1418-4.2 0.3316l2.1639 3.5453c0.2664-0.0962 0.5673-0.12 0.8535-0.0674s0.5407 0.1783 0.7218 0.3567 0.2781 0.3988 0.275 0.6251c-3e-3 0.2264-0.1059 0.4452-0.2917 0.6207l3.9472 2.4739z" fill="#6b6767"/>
 <path d="m30.63 28.404c-0.3518-0.2128-0.3106-0.7357 0.0702-0.8908l5.3803-2.192c0.2927-0.1193 0.6245-0.0932 0.8949 0.0705l1.7513 1.0596c0.3518 0.2129 0.3106 0.7357-0.0702 0.8908l-5.3802 2.1921c-0.2927 0.1192-0.6246 0.0931-0.895-0.0705l-1.7513-1.0597z" fill="#F29292"/>
 <path d="m40.878 24.032c-0.1636-0.1938-0.266-0.4105-0.3014-0.6378s-0.0031-0.4608 0.0951-0.687c0.0982-0.2263 0.2603-0.4409 0.4772-0.6317 0.2168-0.1908 0.4841-0.354 0.7865-0.4802 0.3024-0.1263 0.6341-0.2131 0.9762-0.2556 0.342-0.0425 0.6876-0.0398 1.0172 8e-3 0.3295 0.0477 0.6365 0.1395 0.9033 0.2702 0.2669 0.1307 0.4884 0.2977 0.652 0.4915l-4.6061 1.9226z" fill="#B7B6B6"/>
 <path d="m40.878 24.032c-0.1636-0.1938-0.266-0.4105-0.3014-0.6378s-0.0031-0.4608 0.0951-0.687c0.0982-0.2263 0.2603-0.4409 0.4772-0.6317 0.2168-0.1908 0.4841-0.354 0.7865-0.4802 0.3024-0.1263 0.6341-0.2131 0.9762-0.2556 0.342-0.0425 0.6876-0.0398 1.0172 8e-3 0.3295 0.0477 0.6365 0.1395 0.9033 0.2702 0.2669 0.1307 0.4884 0.2977 0.652 0.4915l-4.6061 1.9226z" fill="#B7B6B6"/>
 <ellipse transform="rotate(-5.665 23.858 29.952)" cx="23.858" cy="29.952" rx="2.6255" ry="1.7503" fill="#B7B6B6"/>
 <ellipse transform="rotate(-5.665 23.858 29.952)" cx="23.858" cy="29.952" rx="2.6255" ry="1.7503" fill="#B7B6B6"/>
 <path d="m38.235 34.067 1.8706 4.8354c0.1973 0.5098-0.0514 1.0835-0.5584 1.2881l-1.8386 0.742c-0.5223 0.2108-1.1156-0.0512-1.3117-0.5793l-1.6628-4.4783c-0.1288-0.3468-0.3648-0.6435-0.6738-0.8469-0.585-0.385-0.4976-1.2685 0.1515-1.5314l1.7238-0.6983c0.6103-0.2472 1.3099-0.09 1.7557 0.3947 0.2344 0.2547 0.4188 0.5512 0.5437 0.874z" fill="#D9D9D9"/>
 <path d="m45.76 31.011 1.8707 4.8353c0.1972 0.5098-0.0515 1.0835-0.5584 1.2881l-1.8387 0.742c-0.5223 0.2108-1.1156-0.0512-1.3117-0.5792l-1.6628-4.4784c-0.1288-0.3468-0.3648-0.6435-0.6738-0.8469-0.585-0.385-0.4976-1.2684 0.1516-1.5314l1.7237-0.6983c0.6103-0.2472 1.31-0.09 1.7558 0.3947 0.2343 0.2547 0.4187 0.5512 0.5436 0.8741z" fill="#D9D9D9"/>
 <path d="m30.762 37.083 1.8707 4.8353c0.1973 0.5098-0.0515 1.0836-0.5584 1.2881l-1.8386 0.742c-0.5224 0.2108-1.1157-0.0512-1.3117-0.5792l-1.6629-4.4784c-0.1287-0.3468-0.3648-0.6434-0.6737-0.8468-0.585-0.3851-0.4976-1.2685 0.1515-1.5315l1.7237-0.6983c0.6103-0.2472 1.31-0.0899 1.7558 0.3947 0.2343 0.2548 0.4187 0.5513 0.5436 0.8741z" fill="#D9D9D9"/>
 <path d="m53.404 27.923 1.8707 4.8353c0.1972 0.5098-0.0515 1.0836-0.5584 1.2882l-1.8386 0.742c-0.5224 0.2108-1.1157-0.0513-1.3117-0.5793l-1.6629-4.4784c-0.1287-0.3468-0.3648-0.6434-0.6738-0.8468-0.585-0.3851-0.4975-1.2685 0.1516-1.5315l1.7237-0.6982c0.6103-0.2473 1.31-0.09 1.7558 0.3946 0.2343 0.2548 0.4187 0.5513 0.5436 0.8741z" fill="#D9D9D9"/>
 <rect transform="rotate(-20.21 28.375 41.936)" x="28.375" y="41.936" width="1.526" height="8.393" rx=".763" fill="#D9D9D9"/>
 <rect transform="rotate(-20.21 37.143 38.413)" x="37.143" y="38.413" width="1.526" height="8.393" rx=".763" fill="#D9D9D9"/>
 <rect transform="rotate(-20.21 44.652 35.351)" x="44.652" y="35.351" width="1.526" height="8.393" rx=".763" fill="#D9D9D9"/>
 <rect transform="rotate(-20.64 53.287 31.857)" x="53.287" y="31.857" width="1.526" height="8.393" rx=".763" fill="#D9D9D9"/>
</svg>

<svg width="64" height="64" viewBox="0 0 64 64" fill="none" xmlns="http://www.w3.org/2000/svg">
<circle cx="32" cy="32" r="27" fill="url(#paint0_linear_1117_81)"/>
<rect x="13.4271" y="35.1413" width="1.52599" height="8.39296" rx="0.762996" transform="rotate(-20.2096 13.4271 35.1413)" fill="#D9D9D9"/>
<path d="M9.0762 26.9168L11.1058 33.7812C11.1192 33.8267 11.1629 33.8565 11.2102 33.8524L51.414 30.4203C51.5031 30.4127 51.5908 30.3931 51.6748 30.3622L53.9624 29.5189C54.0913 29.4714 54.1578 29.3287 54.1111 29.1995L51.7948 22.7844C51.7537 22.6708 51.6629 22.5822 51.5483 22.5441L38.6504 16.334C38.4111 16.2187 38.1357 16.2035 37.8851 16.2915L9.38994 26.3033C9.13865 26.3916 9.00068 26.6614 9.0762 26.9168Z" fill="#7B7777" stroke="#7B7777"/>
<path d="M11.0523 34.4243C10.3346 33.9936 10.4278 32.9251 11.2106 32.6286C21.096 28.8851 34.2328 23.6641 38.9522 21.7815C40.0815 21.3309 41.3502 21.4185 42.4081 22.0179L53.6828 28.407C54.4102 28.8191 54.3407 29.8888 53.5662 30.2034L25.8724 41.4541C24.7072 41.9274 23.3873 41.8252 22.3089 41.1782L11.0523 34.4243Z" fill="#7B7777"/>
<path d="M9.00721 27.5519C8.3095 27.11 8.41351 26.0616 9.18588 25.7692C19.0356 22.0401 32.1446 16.8309 36.9248 14.9242C38.0867 14.4608 39.398 14.5658 40.4706 15.2093L51.7974 22.0053C52.5044 22.4296 52.4231 23.479 51.6592 23.7893L23.9624 35.0411C22.7657 35.5273 21.4079 35.4056 20.3167 34.7145L9.00721 27.5519Z" fill="#928E8E"/>
<path d="M17.6701 35.9714C18.5847 35.1079 19.091 34.031 19.1059 32.9173C19.1209 31.8035 18.6436 30.7189 17.7524 29.841C16.8611 28.9632 15.6087 28.3442 14.2004 28.0855C12.792 27.8268 11.3111 27.9437 10.0004 28.4171L12.1643 31.9624C12.4307 31.8662 12.7316 31.8424 13.0178 31.895C13.304 31.9476 13.5585 32.0733 13.7396 32.2517C13.9207 32.4301 14.0177 32.6505 14.0146 32.8768C14.0116 33.1032 13.9087 33.322 13.7229 33.4975L17.6701 35.9714Z" fill="#7B7777"/>
<path d="M30.6297 28.4035C30.2779 28.1907 30.3191 27.6678 30.6999 27.5127L36.0802 25.3207C36.3729 25.2014 36.7047 25.2275 36.9751 25.3912L38.7264 26.4508C39.0782 26.6637 39.037 27.1865 38.6562 27.3416L33.276 29.5337C32.9833 29.6529 32.6514 29.6268 32.381 29.4632L30.6297 28.4035Z" fill="#F29292"/>
<path d="M40.878 24.0317C40.7144 23.8379 40.612 23.6212 40.5766 23.3939C40.5412 23.1666 40.5735 22.9331 40.6717 22.7069C40.7699 22.4806 40.932 22.266 41.1489 22.0752C41.3657 21.8844 41.633 21.7212 41.9354 21.595C42.2378 21.4687 42.5695 21.3819 42.9116 21.3394C43.2536 21.2969 43.5992 21.2996 43.9288 21.3474C44.2583 21.3951 44.5653 21.4869 44.8321 21.6176C45.099 21.7483 45.3205 21.9153 45.4841 22.1091L43.181 23.0704L40.878 24.0317Z" fill="#B7B6B6"/>
<path d="M40.878 24.0317C40.7144 23.8379 40.612 23.6212 40.5766 23.3939C40.5412 23.1666 40.5735 22.9331 40.6717 22.7069C40.7699 22.4806 40.932 22.266 41.1489 22.0752C41.3657 21.8844 41.633 21.7212 41.9354 21.595C42.2378 21.4687 42.5695 21.3819 42.9116 21.3394C43.2536 21.2969 43.5992 21.2996 43.9288 21.3474C44.2583 21.3951 44.5653 21.4869 44.8321 21.6176C45.099 21.7483 45.3205 21.9153 45.4841 22.1091L43.181 23.0704L40.878 24.0317Z" fill="#B7B6B6"/>
<ellipse cx="23.8579" cy="29.952" rx="2.62547" ry="1.75032" transform="rotate(-5.66496 23.8579 29.952)" fill="#B7B6B6"/>
<ellipse cx="23.8579" cy="29.952" rx="2.62547" ry="1.75032" transform="rotate(-5.66496 23.8579 29.952)" fill="#B7B6B6"/>
<path d="M38.2354 34.0674L40.106 38.9028C40.3033 39.4126 40.0546 39.9863 39.5476 40.1909L37.709 40.9329C37.1867 41.1437 36.5934 40.8817 36.3973 40.3536L34.7345 35.8753C34.6057 35.5285 34.3697 35.2318 34.0607 35.0284C33.4757 34.6434 33.5631 33.7599 34.2122 33.497L35.936 32.7987C36.5463 32.5515 37.2459 32.7087 37.6917 33.1934C37.9261 33.4481 38.1105 33.7446 38.2354 34.0674Z" fill="#D9D9D9"/>
<path d="M45.7602 31.011L47.6309 35.8463C47.8281 36.3561 47.5794 36.9298 47.0725 37.1344L45.2338 37.8764C44.7115 38.0872 44.1182 37.8252 43.9221 37.2972L42.2593 32.8188C42.1305 32.472 41.8945 32.1753 41.5855 31.9719C41.0005 31.5869 41.0879 30.7035 41.7371 30.4405L43.4608 29.7422C44.0711 29.495 44.7708 29.6522 45.2166 30.1369C45.4509 30.3916 45.6353 30.6881 45.7602 31.011Z" fill="#D9D9D9"/>
<path d="M30.7622 37.0829L32.6329 41.9182C32.8302 42.428 32.5814 43.0018 32.0745 43.2063L30.2359 43.9483C29.7135 44.1591 29.1202 43.8971 28.9242 43.3691L27.2613 38.8907C27.1326 38.5439 26.8965 38.2473 26.5876 38.0439C26.0026 37.6588 26.09 36.7754 26.7391 36.5124L28.4628 35.8141C29.0731 35.5669 29.7728 35.7242 30.2186 36.2088C30.4529 36.4636 30.6373 36.7601 30.7622 37.0829Z" fill="#D9D9D9"/>
<path d="M53.4045 27.9233L55.2752 32.7586C55.4724 33.2684 55.2237 33.8422 54.7168 34.0468L52.8782 34.7888C52.3558 34.9996 51.7625 34.7375 51.5665 34.2095L49.9036 29.7311C49.7749 29.3843 49.5388 29.0877 49.2298 28.8843C48.6448 28.4992 48.7323 27.6158 49.3814 27.3528L51.1051 26.6546C51.7154 26.4073 52.4151 26.5646 52.8609 27.0492C53.0952 27.304 53.2796 27.6005 53.4045 27.9233Z" fill="#D9D9D9"/>
<rect x="28.3754" y="41.936" width="1.52599" height="8.39296" rx="0.762996" transform="rotate(-20.2096 28.3754 41.936)" fill="#D9D9D9"/>
<rect x="37.1431" y="38.4132" width="1.52599" height="8.39296" rx="0.762996" transform="rotate(-20.2096 37.1431 38.4132)" fill="#D9D9D9"/>
<rect x="44.652" y="35.3508" width="1.52599" height="8.39296" rx="0.762996" transform="rotate(-20.2096 44.652 35.3508)" fill="#D9D9D9"/>
<rect x="53.2873" y="31.8568" width="1.52599" height="8.39296" rx="0.762996" transform="rotate(-20.6403 53.2873 31.8568)" fill="#D9D9D9"/>
<defs>
<linearGradient id="paint0_linear_1117_81" x1="5" y1="5" x2="59" y2="59" gradientUnits="userSpaceOnUse">
<stop stop-color="#707070"/>
<stop offset="1" stop-color="#676767"/>
</linearGradient>
</defs>
</svg>
